X: 274
T: Morning Star
M: 4/4
L: 1/8
R: reel
K: Bmin
B2BA BGEF | G2Bd efgd | B2BA BGEF | GBAF G3A :|
Bdef g2eg | fedf edBA | Bdef g2eg | fedf e3d |
Bdef gfeg | fedf edBA | Bddc d2ef | g2af ged=c ||

